computer/database/transaction_1.svg

<svg xmlns="http://www.w3.org/2000/svg" xml:space="preserve" width="3369" height="2126" overflow="hidden"><path fill="none" stroke="#000" stroke-linejoin="round" stroke-miterlimit="10" stroke-width="4.583" d="M459.667 255.708V2120.29M4.041 523.715H915.29M4.041 789.429H915.29M4.041 1055.14H915.29M4.041 1320.86H915.29M4.041 1586.57H915.29M4.041 1852.29H915.29M6.333 255.708V2120.29M913 255.708V2120.29M4.041 258H915.29M4.041 2118H915.29"/><text font-family="DengXian,DengXian_MSFontService,sans-serif" font-size="83" font-weight="400" transform="translate(643.078 352)">T2</text><text font-family="DengXian,DengXian_MSFontService,sans-serif" font-size="83" font-weight="400" transform="translate(189.745 352)">T1</text><text font-family="DengXian,DengXian_MSFontService,sans-serif" font-size="83" font-weight="400" transform="translate(39.333 617)">Read A</text><text font-family="DengXian,DengXian_MSFontService,sans-serif" font-size="83" font-weight="400" transform="translate(39.333 716)">A = 50</text><text font-family="DengXian,DengXian_MSFontService,sans-serif" font-size="83" font-weight="400" transform="translate(492.667 883)">Read A</text><text font-family="DengXian,DengXian_MSFontService,sans-serif" font-size="83" font-weight="400" transform="translate(492.667 982)">A = 50</text><text font-family="DengXian,DengXian_MSFontService,sans-serif" font-size="83" font-weight="400" transform="translate(39.333 1149)">Update A</text><text font-family="DengXian,DengXian_MSFontService,sans-serif" font-size="83" font-weight="400" transform="translate(39.333 1248)">A = A </text><text font-family="DengXian,DengXian_MSFontService,sans-serif" font-size="83" font-weight="400" transform="translate(266.781 1248)">-</text><text font-family="DengXian,DengXian_MSFontService,sans-serif" font-size="83" font-weight="400" transform="translate(330.375 1248)">1</text><text font-family="DengXian,DengXian_MSFontService,sans-serif" font-size="83" font-weight="400" transform="translate(492.667 1414)">Update A</text><text font-family="DengXian,DengXian_MSFontService,sans-serif" font-size="83" font-weight="400" transform="translate(492.667 1513)">A = A </text><text font-family="DengXian,DengXian_MSFontService,sans-serif" font-size="83" font-weight="400" transform="translate(720.11 1513)">-</text><text font-family="DengXian,DengXian_MSFontService,sans-serif" font-size="83" font-weight="400" transform="translate(783.71 1513)">1</text><text font-family="DengXian,DengXian_MSFontService,sans-serif" font-size="83" font-weight="400" transform="translate(39.333 1680)">Write A</text><text font-family="DengXian,DengXian_MSFontService,sans-serif" font-size="83" font-weight="400" transform="translate(39.333 1779)">A = 49</text><text font-family="DengXian,DengXian_MSFontService,sans-serif" font-size="83" font-weight="400" transform="translate(492.667 1946)">Write A</text><text font-family="DengXian,DengXian_MSFontService,sans-serif" font-size="83" font-weight="400" transform="translate(492.667 2045)">A = 49</text><path fill="none" stroke="#000" stroke-linejoin="round" stroke-miterlimit="10" stroke-width="4.583" d="M1684.67 255.708V2120.29M1229.04 523.714h911.25m-911.25 265.715h911.25m-911.25 265.711h911.25m-911.25 265.72h911.25m-911.25 265.71h911.25m-911.25 265.72h911.25M1231.33 255.708V2120.29M2138 255.708V2120.29M1229.04 258h911.25m-911.25 1860h911.25"/><text font-family="DengXian,DengXian_MSFontService,sans-serif" font-size="83" font-weight="400" transform="translate(1868.08 351)">T2</text><text font-family="DengXian,DengXian_MSFontService,sans-serif" font-size="83" font-weight="400" transform="translate(1414.74 351)">T1</text><text font-family="DengXian,DengXian_MSFontService,sans-serif" font-size="83" font-weight="400" transform="translate(1264.33 617)">Read A</text><text font-family="DengXian,DengXian_MSFontService,sans-serif" font-size="83" font-weight="400" transform="translate(1264.33 716)">A = 50</text><text font-family="DengXian,DengXian_MSFontService,sans-serif" font-size="83" font-weight="400" transform="translate(1717.67 883)">Read A</text><text font-family="DengXian,DengXian_MSFontService,sans-serif" font-size="83" font-weight="400" transform="translate(1717.67 982)">A = 50</text><text font-family="DengXian,DengXian_MSFontService,sans-serif" font-size="83" font-weight="400" transform="translate(1717.67 1149)">Update A</text><text font-family="DengXian,DengXian_MSFontService,sans-serif" font-size="83" font-weight="400" transform="translate(1717.67 1248)">A = A </text><text font-family="DengXian,DengXian_MSFontService,sans-serif" font-size="83" font-weight="400" transform="translate(1945.11 1248)">-</text><text font-family="DengXian,DengXian_MSFontService,sans-serif" font-size="83" font-weight="400" transform="translate(2008.71 1248)">1</text><text font-family="DengXian,DengXian_MSFontService,sans-serif" font-size="83" font-weight="400" transform="translate(1717.67 1414)">Write A</text><text font-family="DengXian,DengXian_MSFontService,sans-serif" font-size="83" font-weight="400" transform="translate(1717.67 1513)">A = 49</text><text font-family="DengXian,DengXian_MSFontService,sans-serif" font-size="83" font-weight="400" transform="translate(1264.33 1680)">Read A</text><text font-family="DengXian,DengXian_MSFontService,sans-serif" font-size="83" font-weight="400" transform="translate(1264.33 1779)">A = 49</text><path fill="none" stroke="#000" stroke-linejoin="round" stroke-miterlimit="10" stroke-width="4.583" d="M2909.67 255.708V2120.29M2454.04 523.714h911.25m-911.25 265.715h911.25m-911.25 265.711h911.25m-911.25 265.72h911.25m-911.25 265.71h911.25m-911.25 265.72h911.25M2456.33 255.708V2120.29M3363 255.708V2120.29M2454.04 258h911.25m-911.25 1860h911.25"/><text font-family="DengXian,DengXian_MSFontService,sans-serif" font-size="83" font-weight="400" transform="translate(3093.08 351)">T2</text><text font-family="DengXian,DengXian_MSFontService,sans-serif" font-size="83" font-weight="400" transform="translate(2639.74 351)">T1</text><text font-family="DengXian,DengXian_MSFontService,sans-serif" font-size="83" font-weight="400" transform="translate(2942.67 617)">Read A</text><text font-family="DengXian,DengXian_MSFontService,sans-serif" font-size="83" font-weight="400" transform="translate(2942.67 716)">A = 50</text><text font-family="DengXian,DengXian_MSFontService,sans-serif" font-size="83" font-weight="400" transform="translate(2489.33 617)">Read A</text><text font-family="DengXian,DengXian_MSFontService,sans-serif" font-size="83" font-weight="400" transform="translate(2489.33 716)">A = 50</text><text font-family="DengXian,DengXian_MSFontService,sans-serif" font-size="83" font-weight="400" transform="translate(2942.67 883)">Update A</text><text font-family="DengXian,DengXian_MSFontService,sans-serif" font-size="83" font-weight="400" transform="translate(2942.67 982)">A = A </text><text font-family="DengXian,DengXian_MSFontService,sans-serif" font-size="83" font-weight="400" transform="translate(3170.11 982)">-</text><text font-family="DengXian,DengXian_MSFontService,sans-serif" font-size="83" font-weight="400" transform="translate(3233.71 982)">1</text><text font-family="DengXian,DengXian_MSFontService,sans-serif" font-size="83" font-weight="400" transform="translate(2942.67 1149)">Write A</text><text font-family="DengXian,DengXian_MSFontService,sans-serif" font-size="83" font-weight="400" transform="translate(2942.67 1248)">A = 49</text><text font-family="DengXian,DengXian_MSFontService,sans-serif" font-size="83" font-weight="400" transform="translate(2489.33 1414)">Read A</text><text font-family="DengXian,DengXian_MSFontService,sans-serif" font-size="83" font-weight="400" transform="translate(2489.33 1513)">A = 49</text><text font-family="DengXian,DengXian_MSFontService,sans-serif" font-size="83" font-weight="400" transform="translate(2942.67 1680)">Roll Back</text><text font-family="DengXian,DengXian_MSFontService,sans-serif" font-size="83" font-weight="400" transform="translate(2942.67 1779)">A = 50</text><text font-family="DengXian,DengXian_MSFontService,sans-serif" font-size="83" font-weight="400" transform="translate(2489.33 1946)">Read A</text><text font-family="DengXian,DengXian_MSFontService,sans-serif" font-size="83" font-weight="400" transform="translate(2489.33 2045)">A = 50</text><text font-family="SimHei,SimHei_MSFontService,sans-serif" font-size="128" font-weight="400" transform="translate(200.171 171)">丢失修改</text><text font-family="SimHei,SimHei_MSFontService,sans-serif" font-size="128" font-weight="400" transform="translate(1360.38 171)">不可重复读</text><text font-family="SimHei,SimHei_MSFontService,sans-serif" font-size="128" font-weight="400" transform="translate(2779.76 171)">脏读</text></svg>

<svg xmlns="http://www.w3.org/2000/svg" xml:space="preserve" width="3369" height="2126" overflow="hidden"><path fill="none" stroke="#000" stroke-linejoin="round" stroke-miterlimit="10" stroke-width="4.583" d="M459.667 255.708V2120.29M4.041 523.715H915.29M4.041 789.429H915.29M4.041 1055.14H915.29M4.041 1320.86H915.29M4.041 1586.57H915.29M4.041 1852.29H915.29M6.333 255.708V2120.29M913 255.708V2120.29M4.041 258H915.29M4.041 2118H915.29"/><text font-family="DengXian,DengXian_MSFontService,sans-serif" font-size="83" font-weight="400" transform="translate(643.078 352)">T2</text><text font-family="DengXian,DengXian_MSFontService,sans-serif" font-size="83" font-weight="400" transform="translate(189.745 352)">T1</text><text font-family="DengXian,DengXian_MSFontService,sans-serif" font-size="83" font-weight="400" transform="translate(39.333 617)">Read A</text><text font-family="DengXian,DengXian_MSFontService,sans-serif" font-size="83" font-weight="400" transform="translate(39.333 716)">A = 50</text><text font-family="DengXian,DengXian_MSFontService,sans-serif" font-size="83" font-weight="400" transform="translate(492.667 883)">Read A</text><text font-family="DengXian,DengXian_MSFontService,sans-serif" font-size="83" font-weight="400" transform="translate(492.667 982)">A = 50</text><text font-family="DengXian,DengXian_MSFontService,sans-serif" font-size="83" font-weight="400" transform="translate(39.333 1149)">Update A</text><text font-family="DengXian,DengXian_MSFontService,sans-serif" font-size="83" font-weight="400" transform="translate(39.333 1248)">A = A </text><text font-family="DengXian,DengXian_MSFontService,sans-serif" font-size="83" font-weight="400" transform="translate(266.781 1248)">-</text><text font-family="DengXian,DengXian_MSFontService,sans-serif" font-size="83" font-weight="400" transform="translate(330.375 1248)">1</text><text font-family="DengXian,DengXian_MSFontService,sans-serif" font-size="83" font-weight="400" transform="translate(492.667 1414)">Update A</text><text font-family="DengXian,DengXian_MSFontService,sans-serif" font-size="83" font-weight="400" transform="translate(492.667 1513)">A = A </text><text font-family="DengXian,DengXian_MSFontService,sans-serif" font-size="83" font-weight="400" transform="translate(720.11 1513)">-</text><text font-family="DengXian,DengXian_MSFontService,sans-serif" font-size="83" font-weight="400" transform="translate(783.71 1513)">1</text><text font-family="DengXian,DengXian_MSFontService,sans-serif" font-size="83" font-weight="400" transform="translate(39.333 1680)">Write A</text><text font-family="DengXian,DengXian_MSFontService,sans-serif" font-size="83" font-weight="400" transform="translate(39.333 1779)">A = 49</text><text font-family="DengXian,DengXian_MSFontService,sans-serif" font-size="83" font-weight="400" transform="translate(492.667 1946)">Write A</text><text font-family="DengXian,DengXian_MSFontService,sans-serif" font-size="83" font-weight="400" transform="translate(492.667 2045)">A = 49</text><path fill="none" stroke="#000" stroke-linejoin="round" stroke-miterlimit="10" stroke-width="4.583" d="M1684.67 255.708V2120.29M1229.04 523.714h911.25M1229.04 789.429h911.25M1229.04 1055.14h911.25M1229.04 1320.86h911.25M1229.04 1586.57h911.25M1229.04 1852.29h911.25M1231.33 255.708V2120.29M2138 255.708V2120.29M1229.04 258h911.25M1229.04 2118h911.25"/><text font-family="DengXian,DengXian_MSFontService,sans-serif" font-size="83" font-weight="400" transform="translate(1868.08 351)">T2</text><text font-family="DengXian,DengXian_MSFontService,sans-serif" font-size="83" font-weight="400" transform="translate(1414.74 351)">T1</text><text font-family="DengXian,DengXian_MSFontService,sans-serif" font-size="83" font-weight="400" transform="translate(1264.33 617)">Read A</text><text font-family="DengXian,DengXian_MSFontService,sans-serif" font-size="83" font-weight="400" transform="translate(1264.33 716)">A = 50</text><text font-family="DengXian,DengXian_MSFontService,sans-serif" font-size="83" font-weight="400" transform="translate(1717.67 883)">Read A</text><text font-family="DengXian,DengXian_MSFontService,sans-serif" font-size="83" font-weight="400" transform="translate(1717.67 982)">A = 50</text><text font-family="DengXian,DengXian_MSFontService,sans-serif" font-size="83" font-weight="400" transform="translate(1717.67 1149)">Update A</text><text font-family="DengXian,DengXian_MSFontService,sans-serif" font-size="83" font-weight="400" transform="translate(1717.67 1248)">A = A </text><text font-family="DengXian,DengXian_MSFontService,sans-serif" font-size="83" font-weight="400" transform="translate(1945.11 1248)">-</text><text font-family="DengXian,DengXian_MSFontService,sans-serif" font-size="83" font-weight="400" transform="translate(2008.71 1248)">1</text><text font-family="DengXian,DengXian_MSFontService,sans-serif" font-size="83" font-weight="400" transform="translate(1717.67 1414)">Write A</text><text font-family="DengXian,DengXian_MSFontService,sans-serif" font-size="83" font-weight="400" transform="translate(1717.67 1513)">A = 49</text><text font-family="DengXian,DengXian_MSFontService,sans-serif" font-size="83" font-weight="400" transform="translate(1264.33 1680)">Read A</text><text font-family="DengXian,DengXian_MSFontService,sans-serif" font-size="83" font-weight="400" transform="translate(1264.33 1779)">A = 49</text><path fill="none" stroke="#000" stroke-linejoin="round" stroke-miterlimit="10" stroke-width="4.583" d="M2909.67 255.708V2120.29M2454.04 523.714h911.25M2454.04 789.429h911.25M2454.04 1055.14h911.25M2454.04 1320.86h911.25M2454.04 1586.57h911.25M2454.04 1852.29h911.25M2456.33 255.708V2120.29M3363 255.708V2120.29M2454.04 258h911.25M2454.04 2118h911.25"/><text font-family="DengXian,DengXian_MSFontService,sans-serif" font-size="83" font-weight="400" transform="translate(3093.08 351)">T2</text><text font-family="DengXian,DengXian_MSFontService,sans-serif" font-size="83" font-weight="400" transform="translate(2639.74 351)">T1</text><text font-family="DengXian,DengXian_MSFontService,sans-serif" font-size="83" font-weight="400" transform="translate(2942.67 617)">Read A</text><text font-family="DengXian,DengXian_MSFontService,sans-serif" font-size="83" font-weight="400" transform="translate(2942.67 716)">A = 50</text><text font-family="DengXian,DengXian_MSFontService,sans-serif" font-size="83" font-weight="400" transform="translate(2489.33 617)">Read A</text><text font-family="DengXian,DengXian_MSFontService,sans-serif" font-size="83" font-weight="400" transform="translate(2489.33 716)">A = 50</text><text font-family="DengXian,DengXian_MSFontService,sans-serif" font-size="83" font-weight="400" transform="translate(2942.67 883)">Update A</text><text font-family="DengXian,DengXian_MSFontService,sans-serif" font-size="83" font-weight="400" transform="translate(2942.67 982)">A = A </text><text font-family="DengXian,DengXian_MSFontService,sans-serif" font-size="83" font-weight="400" transform="translate(3170.11 982)">-</text><text font-family="DengXian,DengXian_MSFontService,sans-serif" font-size="83" font-weight="400" transform="translate(3233.71 982)">1</text><text font-family="DengXian,DengXian_MSFontService,sans-serif" font-size="83" font-weight="400" transform="translate(2942.67 1149)">Write A</text><text font-family="DengXian,DengXian_MSFontService,sans-serif" font-size="83" font-weight="400" transform="translate(2942.67 1248)">A = 49</text><text font-family="DengXian,DengXian_MSFontService,sans-serif" font-size="83" font-weight="400" transform="translate(2489.33 1414)">Read A</text><text font-family="DengXian,DengXian_MSFontService,sans-serif" font-size="83" font-weight="400" transform="translate(2489.33 1513)">A = 49</text><text font-family="DengXian,DengXian_MSFontService,sans-serif" font-size="83" font-weight="400" transform="translate(2942.67 1680)">Roll Back</text><text font-family="DengXian,DengXian_MSFontService,sans-serif" font-size="83" font-weight="400" transform="translate(2942.67 1779)">A = 50</text><text font-family="DengXian,DengXian_MSFontService,sans-serif" font-size="83" font-weight="400" transform="translate(2489.33 1946)">Read A</text><text font-family="DengXian,DengXian_MSFontService,sans-serif" font-size="83" font-weight="400" transform="translate(2489.33 2045)">A = 50</text><text font-family="SimHei,SimHei_MSFontService,sans-serif" font-size="128" font-weight="400" transform="translate(200.171 171)">丢失修改</text><text font-family="SimHei,SimHei_MSFontService,sans-serif" font-size="128" font-weight="400" transform="translate(1360.38 171)">不可重复读</text><text font-family="SimHei,SimHei_MSFontService,sans-serif" font-size="128" font-weight="400" transform="translate(2779.76 171)">脏读</text></svg>
